public/img/laravelidea.svg

<svg fill="none" height="56" viewBox="0 0 362 56" width="362" xmlns="http://www.w3.org/2000/svg" xmlns:xlink="http://www.w3.org/1999/xlink"><clipPath id="a"><path d="m.55957 0h54.88v56h-54.88z"/></clipPath><g clip-path="url(#a)"><g stroke="#fff"><path d="m1.67969 25.3989 6.93677 3.4684v22.5445l-6.93677-3.4684z" stroke-linejoin="round"/><path d="m15.5537 54.8798v-8.6709l12.1394-6.0697v8.671z" stroke-linejoin="round"/><path d="m20.7559 28 6.9368 3.4684v8.6709l-6.9368-3.4684z" stroke-linejoin="round"/><path d="m27.6924 40.1393 6.9367-3.4683v-8.671l-6.9367 3.4684z" stroke-linejoin="round"/><path d="m8.61621 51.4118 6.93679-3.4684v-22.5445l-6.93679 3.4684z" stroke-linejoin="round"/><path d="m15.5532 25.3986-6.93674-3.4684-6.93677 3.4684 6.93677 3.4683z" stroke-linejoin="round"/><path d="m34.6294 28.0002-6.9367-3.4685-6.9368 3.4685 6.9368 3.4683z" stroke-linejoin="round"/><path d="m8.61621 42.7407 6.93679 3.4684v8.671l-6.93679-3.4684z" fill="#fff" stroke-linejoin="round"/><path d="m27.6923 40.1393-6.9367-3.4684-12.13939 6.0697 6.93679 3.4684z" fill="#fff" stroke-linejoin="round"/><path d="m27.6924 24.5314v-12.1393"/></g><path d="m21.6231 10.6582h33.8168v3.4684h-37.2851z" fill="#fff"/><path d="m55.4397 51.4116h-26.0129v3.4684h26.0129z" fill="#fff"/><path d="m47.6347 43.6079h-10.4052v11.2722h10.4052z" fill="#fff"/><path d="m45.0341 1.12012h.8671v46.82328h-6.9368v-37.2852z" stroke="#fff"/><path d="m38.9644 14.1265 6.9368 4.769" stroke="#fff"/><path d="m38.9644 26.2661 6.9368 4.769" stroke="#fff"/><path d="m38.9644 38.4053 6.9368 4.7689" stroke="#fff"/><path d="m38.9644 24.9654 6.9368-4.7691" stroke="#fff"/><path d="m38.9644 37.1044 6.9368-4.769" stroke="#fff"/></g><path d="m74.9915 45v-34.08h6.624v28.272h17.376v5.808zm34.2715.48c-1.216 0-2.352-.192-3.408-.576-1.056-.416-1.968-.976-2.736-1.68-.768-.736-1.376-1.584-1.824-2.544-.416-.96-.624-2.016-.624-3.168 0-1.184.256-2.272.768-3.264.544-1.024 1.28-1.888 2.208-2.592.96-.704 2.096-1.248 3.408-1.632 1.312-.416 2.752-.624 4.32-.624 1.12 0 2.208.096 3.264.288 1.088.192 2.048.464 2.88.816v-1.44c0-1.664-.48-2.944-1.44-3.84-.928-.896-2.32-1.344-4.176-1.344-1.344 0-2.656.24-3.936.72s-2.592 1.184-3.936 2.112l-1.968-4.08c3.232-2.144 6.72-3.216 10.464-3.216 3.616 0 6.416.896 8.4 2.688 2.016 1.76 3.024 4.32 3.024 7.68v7.824c0 .672.112 1.152.336 1.44.256.288.656.448 1.2.48v5.472c-1.088.224-2.032.336-2.832.336-1.216 0-2.16-.272-2.832-.816-.64-.544-1.04-1.264-1.2-2.16l-.144-1.392c-1.12 1.472-2.48 2.592-4.08 3.36s-3.312 1.152-5.136 1.152zm1.824-4.704c1.088 0 2.112-.192 3.072-.576.992-.384 1.76-.896 2.304-1.536.704-.544 1.056-1.152 1.056-1.824v-2.88c-.768-.288-1.6-.512-2.496-.672-.896-.192-1.76-.288-2.592-.288-1.664 0-3.024.384-4.08 1.152-1.056.736-1.584 1.68-1.584 2.832 0 1.088.416 2 1.248 2.736.832.704 1.856 1.056 3.072 1.056zm33.85-15.36c-1.952.032-3.696.416-5.232 1.152-1.536.704-2.64 1.776-3.312 3.216v15.216h-6.432v-25.152h5.904v5.376c.448-.864.976-1.632 1.584-2.304.608-.704 1.264-1.312 1.968-1.824s1.408-.896 2.112-1.152c.736-.288 1.44-.432 2.112-.432h.768c.192 0 .368.016.528.048zm10.123 20.064c-1.216 0-2.352-.192-3.408-.576-1.056-.416-1.968-.976-2.736-1.68-.768-.736-1.376-1.584-1.824-2.544-.416-.96-.624-2.016-.624-3.168 0-1.184.256-2.272.768-3.264.544-1.024 1.28-1.888 2.208-2.592.96-.704 2.096-1.248 3.408-1.632 1.312-.416 2.752-.624 4.32-.624 1.12 0 2.208.096 3.264.288 1.088.192 2.048.464 2.88.816v-1.44c0-1.664-.48-2.944-1.44-3.84-.928-.896-2.32-1.344-4.176-1.344-1.344 0-2.656.24-3.936.72s-2.592 1.184-3.936 2.112l-1.968-4.08c3.232-2.144 6.72-3.216 10.464-3.216 3.616 0 6.416.896 8.4 2.688 2.016 1.76 3.024 4.32 3.024 7.68v7.824c0 .672.112 1.152.336 1.44.256.288.656.448 1.2.48v5.472c-1.088.224-2.032.336-2.832.336-1.216 0-2.16-.272-2.832-.816-.64-.544-1.04-1.264-1.2-2.16l-.144-1.392c-1.12 1.472-2.48 2.592-4.08 3.36s-3.312 1.152-5.136 1.152zm1.824-4.704c1.088 0 2.112-.192 3.072-.576.992-.384 1.76-.896 2.304-1.536.704-.544 1.056-1.152 1.056-1.824v-2.88c-.768-.288-1.6-.512-2.496-.672-.896-.192-1.76-.288-2.592-.288-1.664 0-3.024.384-4.08 1.152-1.056.736-1.584 1.68-1.584 2.832 0 1.088.416 2 1.248 2.736.832.704 1.856 1.056 3.072 1.056zm24.986 4.224-9.264-25.152h6.624l6.384 19.92 6.432-19.92h6.048l-9.264 25.152zm30.396.48c-2.016 0-3.84-.336-5.472-1.008-1.632-.704-3.024-1.648-4.176-2.832s-2.048-2.56-2.688-4.128c-.608-1.568-.912-3.216-.912-4.944 0-1.792.304-3.472.912-5.04.608-1.6 1.488-2.992 2.64-4.176 1.152-1.216 2.544-2.176 4.176-2.88 1.664-.704 3.52-1.056 5.568-1.056s3.872.352 5.472 1.056c1.632.704 3.008 1.648 4.128 2.832 1.152 1.184 2.016 2.56 2.592 4.128.608 1.568.912 3.2.912 4.896 0 .416-.016.816-.048 1.2 0 .384-.032.704-.096.96h-19.44c.096.992.336 1.872.72 2.64s.88 1.424 1.488 1.968 1.296.96 2.064 1.248 1.568.432 2.4.432c1.28 0 2.48-.304 3.6-.912 1.152-.64 1.936-1.472 2.352-2.496l5.52 1.536c-.928 1.92-2.416 3.504-4.464 4.752-2.016 1.216-4.432 1.824-7.248 1.824zm6.528-15.168c-.16-1.888-.864-3.392-2.112-4.512-1.216-1.152-2.704-1.728-4.464-1.728-.864 0-1.68.16-2.448.48-.736.288-1.392.704-1.968 1.248s-1.056 1.2-1.44 1.968c-.352.768-.56 1.616-.624 2.544zm10.494-20.352h6.432v26.976c0 .928.224 1.648.672 2.16s1.088.768 1.92.768c.384 0 .8-.064 1.248-.192.48-.128.928-.288 1.344-.48l.864 4.896c-.864.416-1.872.736-3.024.96s-2.192.336-3.12.336c-2.016 0-3.584-.528-4.704-1.584-1.088-1.088-1.632-2.624-1.632-4.608zm25.938 35.04v-34.08h6.624v34.08zm13.734 0v-34.08h12.384c2.784 0 5.216.448 7.296 1.344 2.112.896 3.872 2.112 5.28 3.648s2.464 3.344 3.168 5.424c.704 2.048 1.056 4.24 1.056 6.576 0 2.592-.4 4.944-1.2 7.056-.768 2.08-1.888 3.872-3.36 5.376-1.472 1.472-3.248 2.624-5.328 3.456-2.048.8-4.352 1.2-6.912 1.2zm22.512-17.088c0-1.632-.224-3.136-.672-4.512s-1.104-2.56-1.968-3.552-1.936-1.76-3.216-2.304c-1.248-.544-2.672-.816-4.272-.816h-5.76v22.464h5.76c1.632 0 3.072-.288 4.32-.864 1.28-.576 2.336-1.36 3.168-2.352.864-1.024 1.52-2.224 1.968-3.6s.672-2.864.672-4.464zm35.512 11.28v5.808h-23.664v-34.08h23.232v5.808h-16.608v8.208h14.352v5.376h-14.352v8.88zm14.86-28.272h5.856l12.96 34.08h-6.816l-3.168-8.496h-11.904l-3.12 8.496h-6.816zm7.632 20.928-4.704-13.392-4.896 13.392z" fill="#fafafa"/></svg>

<svg width="362" height="56" viewBox="0 0 362 56" fill="none" xmlns="http://www.w3.org/2000/svg">
<g clip-path="url(#clip0_242_4692)">
<path d="M1.67969 25.3989L8.61646 28.8673V51.4118L1.67969 47.9434V25.3989Z" stroke="white" stroke-linejoin="round"/>
<path d="M15.5537 54.8798V46.2089L27.6931 40.1392V48.8102L15.5537 54.8798Z" stroke="white" stroke-linejoin="round"/>
<path d="M20.7559 28L27.6927 31.4684V40.1393L20.7559 36.6709V28Z" stroke="white" stroke-linejoin="round"/>
<path d="M27.6924 40.1393L34.6291 36.671V28L27.6924 31.4684V40.1393Z" stroke="white" stroke-linejoin="round"/>
<path d="M8.61621 51.4118L15.553 47.9434V25.3989L8.61621 28.8673V51.4118Z" stroke="white" stroke-linejoin="round"/>
<path d="M15.5532 25.3986L8.61646 21.9302L1.67969 25.3986L8.61646 28.8669L15.5532 25.3986Z" stroke="white" stroke-linejoin="round"/>
<path d="M34.6294 28.0002L27.6927 24.5317L20.7559 28.0002L27.6927 31.4685L34.6294 28.0002Z" stroke="white" stroke-linejoin="round"/>
<path d="M8.61621 42.7407L15.553 46.2091V54.8801L8.61621 51.4117V42.7407Z" fill="white" stroke="white" stroke-linejoin="round"/>
<path d="M27.6923 40.1393L20.7556 36.6709L8.61621 42.7406L15.553 46.209L27.6923 40.1393Z" fill="white" stroke="white" stroke-linejoin="round"/>
<path d="M27.6924 24.5314V12.3921" stroke="white"/>
<path d="M21.6231 10.6582H55.4399V14.1266H18.1548L21.6231 10.6582Z" fill="white"/>
<path d="M55.4397 51.4116H29.4268V54.88H55.4397V51.4116Z" fill="white"/>
<path d="M47.6347 43.6079H37.2295V54.8801H47.6347V43.6079Z" fill="white"/>
<path d="M45.0341 1.12012H45.9012V47.9434H38.9644V10.6582L45.0341 1.12012Z" stroke="white"/>
<path d="M38.9644 14.1265L45.9012 18.8955" stroke="white"/>
<path d="M38.9644 26.2661L45.9012 31.0351" stroke="white"/>
<path d="M38.9644 38.4053L45.9012 43.1742" stroke="white"/>
<path d="M38.9644 24.9654L45.9012 20.1963" stroke="white"/>
<path d="M38.9644 37.1044L45.9012 32.3354" stroke="white"/>
</g>
<path d="M74.9915 45V10.92H81.6155V39.192H98.9915V45H74.9915ZM109.263 45.48C108.047 45.48 106.911 45.288 105.855 44.904C104.799 44.488 103.887 43.928 103.119 43.224C102.351 42.488 101.743 41.64 101.295 40.68C100.879 39.72 100.671 38.664 100.671 37.512C100.671 36.328 100.927 35.24 101.439 34.248C101.983 33.224 102.719 32.36 103.647 31.656C104.607 30.952 105.743 30.408 107.055 30.024C108.367 29.608 109.807 29.4 111.375 29.4C112.495 29.4 113.583 29.496 114.639 29.688C115.727 29.88 116.687 30.152 117.519 30.504V29.064C117.519 27.4 117.039 26.12 116.079 25.224C115.151 24.328 113.759 23.88 111.903 23.88C110.559 23.88 109.247 24.12 107.967 24.6C106.687 25.08 105.375 25.784 104.031 26.712L102.063 22.632C105.295 20.488 108.783 19.416 112.527 19.416C116.143 19.416 118.943 20.312 120.927 22.104C122.943 23.864 123.951 26.424 123.951 29.784V37.608C123.951 38.28 124.063 38.76 124.287 39.048C124.543 39.336 124.943 39.496 125.487 39.528V45C124.399 45.224 123.455 45.336 122.655 45.336C121.439 45.336 120.495 45.064 119.823 44.52C119.183 43.976 118.783 43.256 118.623 42.36L118.479 40.968C117.359 42.44 115.999 43.56 114.399 44.328C112.799 45.096 111.087 45.48 109.263 45.48ZM111.087 40.776C112.175 40.776 113.199 40.584 114.159 40.2C115.151 39.816 115.919 39.304 116.463 38.664C117.167 38.12 117.519 37.512 117.519 36.84V33.96C116.751 33.672 115.919 33.448 115.023 33.288C114.127 33.096 113.263 33 112.431 33C110.767 33 109.407 33.384 108.351 34.152C107.295 34.888 106.767 35.832 106.767 36.984C106.767 38.072 107.183 38.984 108.015 39.72C108.847 40.424 109.871 40.776 111.087 40.776ZM144.937 25.416C142.985 25.448 141.241 25.832 139.705 26.568C138.169 27.272 137.065 28.344 136.393 29.784V45H129.961V19.848H135.865V25.224C136.313 24.36 136.841 23.592 137.449 22.92C138.057 22.216 138.713 21.608 139.417 21.096C140.121 20.584 140.825 20.2 141.529 19.944C142.265 19.656 142.969 19.512 143.641 19.512C143.993 19.512 144.249 19.512 144.409 19.512C144.601 19.512 144.777 19.528 144.937 19.56V25.416ZM155.06 45.48C153.844 45.48 152.708 45.288 151.652 44.904C150.596 44.488 149.684 43.928 148.916 43.224C148.148 42.488 147.54 41.64 147.092 40.68C146.676 39.72 146.468 38.664 146.468 37.512C146.468 36.328 146.724 35.24 147.236 34.248C147.78 33.224 148.516 32.36 149.444 31.656C150.404 30.952 151.54 30.408 152.852 30.024C154.164 29.608 155.604 29.4 157.172 29.4C158.292 29.4 159.38 29.496 160.436 29.688C161.524 29.88 162.484 30.152 163.316 30.504V29.064C163.316 27.4 162.836 26.12 161.876 25.224C160.948 24.328 159.556 23.88 157.7 23.88C156.356 23.88 155.044 24.12 153.764 24.6C152.484 25.08 151.172 25.784 149.828 26.712L147.86 22.632C151.092 20.488 154.58 19.416 158.324 19.416C161.94 19.416 164.74 20.312 166.724 22.104C168.74 23.864 169.748 26.424 169.748 29.784V37.608C169.748 38.28 169.86 38.76 170.084 39.048C170.34 39.336 170.74 39.496 171.284 39.528V45C170.196 45.224 169.252 45.336 168.452 45.336C167.236 45.336 166.292 45.064 165.62 44.52C164.98 43.976 164.58 43.256 164.42 42.36L164.276 40.968C163.156 42.44 161.796 43.56 160.196 44.328C158.596 45.096 156.884 45.48 155.06 45.48ZM156.884 40.776C157.972 40.776 158.996 40.584 159.956 40.2C160.948 39.816 161.716 39.304 162.26 38.664C162.964 38.12 163.316 37.512 163.316 36.84V33.96C162.548 33.672 161.716 33.448 160.82 33.288C159.924 33.096 159.06 33 158.228 33C156.564 33 155.204 33.384 154.148 34.152C153.092 34.888 152.564 35.832 152.564 36.984C152.564 38.072 152.98 38.984 153.812 39.72C154.644 40.424 155.668 40.776 156.884 40.776ZM181.87 45L172.606 19.848H179.23L185.614 39.768L192.046 19.848H198.094L188.83 45H181.87ZM212.266 45.48C210.25 45.48 208.426 45.144 206.794 44.472C205.162 43.768 203.77 42.824 202.618 41.64C201.466 40.456 200.57 39.08 199.93 37.512C199.322 35.944 199.018 34.296 199.018 32.568C199.018 30.776 199.322 29.096 199.93 27.528C200.538 25.928 201.418 24.536 202.57 23.352C203.722 22.136 205.114 21.176 206.746 20.472C208.41 19.768 210.266 19.416 212.314 19.416C214.362 19.416 216.186 19.768 217.786 20.472C219.418 21.176 220.794 22.12 221.914 23.304C223.066 24.488 223.93 25.864 224.506 27.432C225.114 29 225.418 30.632 225.418 32.328C225.418 32.744 225.402 33.144 225.37 33.528C225.37 33.912 225.338 34.232 225.274 34.488H205.834C205.93 35.48 206.17 36.36 206.554 37.128C206.938 37.896 207.434 38.552 208.042 39.096C208.65 39.64 209.338 40.056 210.106 40.344C210.874 40.632 211.674 40.776 212.506 40.776C213.786 40.776 214.986 40.472 216.106 39.864C217.258 39.224 218.042 38.392 218.458 37.368L223.978 38.904C223.05 40.824 221.562 42.408 219.514 43.656C217.498 44.872 215.082 45.48 212.266 45.48ZM218.794 30.312C218.634 28.424 217.93 26.92 216.682 25.8C215.466 24.648 213.978 24.072 212.218 24.072C211.354 24.072 210.538 24.232 209.77 24.552C209.034 24.84 208.378 25.256 207.802 25.8C207.226 26.344 206.746 27 206.362 27.768C206.01 28.536 205.802 29.384 205.738 30.312H218.794ZM229.288 9.96H235.72V36.936C235.72 37.864 235.944 38.584 236.392 39.096C236.84 39.608 237.48 39.864 238.312 39.864C238.696 39.864 239.112 39.8 239.56 39.672C240.04 39.544 240.488 39.384 240.904 39.192L241.768 44.088C240.904 44.504 239.896 44.824 238.744 45.048C237.592 45.272 236.552 45.384 235.624 45.384C233.608 45.384 232.04 44.856 230.92 43.8C229.832 42.712 229.288 41.176 229.288 39.192V9.96ZM255.226 45V10.92H261.85V45H255.226ZM268.96 45V10.92H281.344C284.128 10.92 286.56 11.368 288.64 12.264C290.752 13.16 292.512 14.376 293.92 15.912C295.328 17.448 296.384 19.256 297.088 21.336C297.792 23.384 298.144 25.576 298.144 27.912C298.144 30.504 297.744 32.856 296.944 34.968C296.176 37.048 295.056 38.84 293.584 40.344C292.112 41.816 290.336 42.968 288.256 43.8C286.208 44.6 283.904 45 281.344 45H268.96ZM291.472 27.912C291.472 26.28 291.248 24.776 290.8 23.4C290.352 22.024 289.696 20.84 288.832 19.848C287.968 18.856 286.896 18.088 285.616 17.544C284.368 17 282.944 16.728 281.344 16.728H275.584V39.192H281.344C282.976 39.192 284.416 38.904 285.664 38.328C286.944 37.752 288 36.968 288.832 35.976C289.696 34.952 290.352 33.752 290.8 32.376C291.248 31 291.472 29.512 291.472 27.912ZM326.984 39.192V45H303.32V10.92H326.552V16.728H309.944V24.936H324.296V30.312H309.944V39.192H326.984ZM341.844 10.92H347.7L360.66 45H353.844L350.676 36.504H338.772L335.652 45H328.836L341.844 10.92ZM349.476 31.848L344.772 18.456L339.876 31.848H349.476Z" fill="#FAFAFA"/>
<defs>
<clipPath id="clip0_242_4692">
<rect width="54.88" height="56" fill="white" transform="translate(0.55957)"/>
</clipPath>
</defs>
</svg>
